X: 38762
T: Strop The Razor
R: jig
M: 6/8
K: Gmajor
|:BGG AGG|BGG AGF|DGG GAG|DGG G2A|
BGG AGG|BGG AGF|D2E F2G|ADE FGA:|
|:dBB cAA|dBB cAF|DGG GAG|DGG G2B|
dBB cAA|dBB cAF|D2E F2G|ADE FGA:|
|:BAB cBc|ded dBd|g3 gfd|gag gdc|
BAB cBc|ded d2e|=f3 ede|=f2g fdc:|

